X: 10521
P: Copyright.
U: Q=!diminuendo(!
U: q=!diminuendo)!
M: 6/8
L: 1/8
K: D
(de)f (ed)c | d2B A2F | dcd fed | (Q^d3 qe2)A |\
(de)f (ed)c | d2B A2F | (GA)B (Ad)c | (e3 d2) H|]\
[K:G] =c |\
(Bd)g (gf)e | (e2d) (B2d) | (e2d) (gab) | (Qb3 qa2) (d/c/) |
(Bd)g (gf)e | (e2d) (QB2qd) | (efg) (fga) | (Qa3 "^D.C."qg2) |]\
[K:Edor] !ff!F |\
"_>"B2z "_>"^d2z | "_>"f2z "_>"b2z | (ba)g (gf)e | ^d2f B2B |\
"_>"B2z "_>"^d2z | "_>"f2z "_>"b2z | (ag)f (gf)e | B3- "^D.C"B2 |]


